src/assets/icons/letters,fancy,serif-q.svg

<svg width="48" height="48" viewBox="0 0 48 48" fill="none" xmlns="http://www.w3.org/2000/svg">
<path d="M23.8628 7.36C26.1682 7.36 28.3215 7.75267 30.3228 8.538C32.3242 9.32333 34.0595 10.4127 35.5288 11.806C37.0235 13.174 38.1888 14.7953 39.0248 16.67C39.8862 18.5193 40.3168 20.508 40.3168 22.636C40.3168 25.2453 39.6708 27.652 38.3788 29.856C37.1122 32.0347 35.3262 33.8713 33.0208 35.366C32.5902 35.6447 32.1722 35.898 31.7668 36.126C31.3868 36.3287 30.9435 36.544 30.4368 36.772C29.9302 37 29.3348 37.2407 28.6508 37.494C27.9922 37.7473 27.1942 38.0387 26.2568 38.368C25.6995 38.5707 25.2182 38.748 24.8128 38.9C24.4328 39.052 24.0908 39.1913 23.7868 39.318C23.4828 39.47 23.2042 39.6093 22.9508 39.736C22.7228 39.888 22.4948 40.04 22.2668 40.192V40.344C22.4442 40.3187 22.6722 40.2933 22.9508 40.268C23.2295 40.268 23.4955 40.268 23.7488 40.268C24.8382 40.268 25.8642 40.382 26.8268 40.61C27.8148 40.8633 28.7775 41.1293 29.7148 41.408C30.6775 41.6867 31.6402 41.94 32.6028 42.168C33.5655 42.4213 34.5788 42.548 35.6428 42.548C36.8588 42.548 37.8088 42.3327 38.4928 41.902C39.1768 41.4713 39.7088 40.7493 40.0888 39.736H41.4948C41.5455 40.0653 41.5835 40.3693 41.6088 40.648C41.6342 40.9267 41.6468 41.1673 41.6468 41.37C41.6468 42.1553 41.4695 42.8773 41.1148 43.536C40.7602 44.22 40.2662 44.8027 39.6328 45.284C38.9995 45.7907 38.2522 46.1833 37.3908 46.462C36.5295 46.7407 35.6048 46.88 34.6168 46.88C33.1982 46.88 31.8808 46.6393 30.6648 46.158C29.4488 45.6767 28.2835 45.1447 27.1688 44.562C26.0542 43.9793 24.9902 43.4473 23.9768 42.966C22.9635 42.4847 21.9628 42.244 20.9748 42.244C20.2908 42.244 19.7335 42.358 19.3028 42.586C18.8722 42.814 18.4795 43.0547 18.1248 43.308C17.7955 43.5867 17.4535 43.84 17.0988 44.068C16.7695 44.296 16.3642 44.41 15.8828 44.41C15.4522 44.41 15.1102 44.3087 14.8568 44.106C14.6035 43.9033 14.4768 43.65 14.4768 43.346C14.4768 42.9153 14.6668 42.51 15.0468 42.13C15.4522 41.7753 16.1868 41.3067 17.2508 40.724L22.0388 38.026C20.0122 37.8487 18.1248 37.3293 16.3768 36.468C14.6288 35.6067 13.1088 34.492 11.8168 33.124C10.5502 31.756 9.54951 30.1853 8.81484 28.412C8.08018 26.6133 7.71284 24.7007 7.71284 22.674C7.71284 20.5207 8.11818 18.5067 8.92884 16.632C9.76484 14.7573 10.9048 13.136 12.3488 11.768C13.7928 10.4 15.5028 9.32333 17.4788 8.538C19.4548 7.75267 21.5828 7.36 23.8628 7.36ZM23.8628 35.86C25.3575 35.86 26.7128 35.556 27.9288 34.948C29.1448 34.3147 30.1708 33.428 31.0068 32.288C31.8682 31.148 32.5268 29.7673 32.9828 28.146C33.4642 26.5247 33.7048 24.726 33.7048 22.75C33.7048 20.774 33.4642 18.988 32.9828 17.392C32.5268 15.796 31.8682 14.4407 31.0068 13.326C30.1708 12.2113 29.1448 11.35 27.9288 10.742C26.7128 10.134 25.3575 9.83 23.8628 9.83C22.3682 9.83 21.0255 10.134 19.8348 10.742C18.6695 11.3247 17.6815 12.1733 16.8708 13.288C16.0602 14.4027 15.4268 15.758 14.9708 17.354C14.5402 18.95 14.3248 20.7487 14.3248 22.75C14.3248 24.7767 14.5402 26.6007 14.9708 28.222C15.4268 29.8433 16.0602 31.224 16.8708 32.364C17.7068 33.4787 18.7075 34.34 19.8728 34.948C21.0635 35.556 22.3935 35.86 23.8628 35.86Z" fill="black"/>
</svg>

<svg xmlns="http://www.w3.org/2000/svg" width="48" height="48" fill="none" viewBox="0 0 48 48">
  <path fill="#000" d="M23.863 7.36c2.305 0 4.459.393 6.46 1.178 2.001.785 3.736 1.875 5.206 3.268a14.555 14.555 0 013.496 4.864c.861 1.85 1.292 3.838 1.292 5.966 0 2.61-.646 5.016-1.938 7.22-1.267 2.179-3.053 4.015-5.358 5.51-.43.279-.849.532-1.254.76-.38.203-.823.418-1.33.646-.507.228-1.102.469-1.786.722-.659.253-1.457.545-2.394.874-.558.203-1.039.38-1.444.532-.38.152-.722.291-1.026.418l-.836.418-.684.456v.152c.177-.025.405-.05.684-.076h.798c1.09 0 2.115.114 3.078.342.988.253 1.95.52 2.888.798a60.67 60.67 0 002.888.76c.962.253 1.976.38 3.04.38 1.216 0 2.166-.215 2.85-.646.684-.43 1.216-1.153 1.596-2.166h1.406c.05.33.089.633.114.912.025.279.038.52.038.722 0 .785-.178 1.507-.532 2.166a5.157 5.157 0 01-1.482 1.748c-.634.507-1.38.9-2.242 1.178a8.96 8.96 0 01-2.774.418c-1.419 0-2.736-.24-3.952-.722a36.676 36.676 0 01-3.496-1.596 93.367 93.367 0 00-3.192-1.596c-1.014-.481-2.014-.722-3.002-.722-.684 0-1.242.114-1.672.342-.43.228-.823.469-1.178.722-.33.279-.672.532-1.026.76-.33.228-.735.342-1.216.342-.43 0-.773-.101-1.026-.304-.253-.203-.38-.456-.38-.76 0-.43.19-.836.57-1.216.405-.355 1.14-.823 2.204-1.406l4.788-2.698c-2.027-.177-3.914-.697-5.662-1.558a15.84 15.84 0 01-4.56-3.344 15.738 15.738 0 01-3.002-4.712c-.735-1.799-1.102-3.711-1.102-5.738 0-2.153.405-4.167 1.216-6.042a15.087 15.087 0 013.42-4.864c1.444-1.368 3.154-2.445 5.13-3.23 1.976-.785 4.104-1.178 6.384-1.178zm0 28.5c1.495 0 2.85-.304 4.066-.912a8.849 8.849 0 003.078-2.66c.861-1.14 1.52-2.52 1.976-4.142.481-1.621.722-3.42.722-5.396s-.24-3.762-.722-5.358c-.456-1.596-1.115-2.951-1.976-4.066a8.631 8.631 0 00-3.078-2.584c-1.216-.608-2.571-.912-4.066-.912-1.495 0-2.837.304-4.028.912-1.166.583-2.154 1.431-2.964 2.546-.81 1.115-1.444 2.47-1.9 4.066-.43 1.596-.646 3.395-.646 5.396 0 2.027.215 3.85.646 5.472.456 1.621 1.09 3.002 1.9 4.142.836 1.115 1.837 1.976 3.002 2.584 1.19.608 2.52.912 3.99.912z"/>
</svg>
